src/assets/bold/lm-4-squares-split-horizontal-bold.svg

<svg width="24" height="24" viewBox="0 0 24 24" fill="none" xmlns="http://www.w3.org/2000/svg" fill="currentColor">
<path d="M18.75 3.75C19.5784 3.75 20.25 4.42157 20.25 5.25V18.75C20.25 19.5784 19.5784 20.25 18.75 20.25H5.25C4.42157 20.25 3.75 19.5784 3.75 18.75V5.25C3.75 4.42157 4.42157 3.75 5.25 3.75H18.75ZM5.25 18.75H7.5V5.25H5.25V18.75ZM9 18.75H11.25V5.25H9V18.75ZM16.5 18.75H18.75V5.25H16.5V18.75ZM12.75 18.75H15V5.25H12.75V18.75Z" fill="black"/>
</svg>

<svg xmlns="http://www.w3.org/2000/svg" width="24" height="24" fill="currentColor" viewBox="0 0 24 24">
  <path d="M18.75 3.75a1.5 1.5 0 0 1 1.5 1.5v13.5a1.5 1.5 0 0 1-1.5 1.5H5.25a1.5 1.5 0 0 1-1.5-1.5V5.25a1.5 1.5 0 0 1 1.5-1.5h13.5Zm-13.5 15H7.5V5.25H5.25v13.5Zm3.75 0h2.25V5.25H9v13.5Zm7.5 0h2.25V5.25H16.5v13.5Zm-3.75 0H15V5.25h-2.25v13.5Z"/>
</svg>
